public/svgs/icons/static.svg

<svg fill="none" height="72" viewBox="0 0 97 72" width="97" xmlns="http://www.w3.org/2000/svg"><path d="m84.67 14.3601h-83.92c-.198912 0-.389678-.079-.53033-.2197-.1406524-.1406-.21967-.3314-.21967-.5303s.0790176-.3897.21967-.5303c.140652-.1407.331418-.2197.53033-.2197h83.92c.1989 0 .3897.079.5303.2197.1407.1406.2197.3314.2197.5303s-.079.3897-.2197.5303c-.1406.1407-.3314.2197-.5303.2197z" fill="#bad8db"/><path d="m8.21008 8.79003c.90022 0 1.63-.72978 1.63-1.63 0-.90023-.72978-1.63-1.63-1.63-.90023 0-1.63.72977-1.63 1.63 0 .90022.72977 1.63 1.63 1.63z" fill="#ed6a5e"/><path d="m54 60.9001h-52.49996v-59.40006h82.41996v21.25006c.5.13 1 .26 1.5.41v-21.83006c0-.35274-.1401-.69103-.3895-.940454-.2494-.249423-.5877-.38954783-.9405-.38954783h-82.75996c-.17503-.00133107-.348577.03216153-.510541.09852893-.161965.0663669-.309112.1642839-.43288.2880519s-.221685.270915-.2880519.43288c-.0663674.161964-.09986001.335511-.09852893.510541v59.75006c-.000005.1742.03446633.3466.10142683.5074.066961.1608.165087.3068.288721.4295.123635.1227.270333.2197.431639.2855.161305.0657.334025.0989.508215.0976h53.52996c-.3-.49-.57-.99-.86-1.5z" fill="#bad8db"/><g fill="#ed6a5e"><path d="m78 71.13c-.1989 0-.3897-.0789-.5303-.2196-.1407-.1406-.2197-.3315-.2197-.5304v-41.83c0-.1989.079-.3897.2197-.5303.1406-.1407.3314-.2197.5303-.2197s.3897.079.5303.2197c.1407.1406.2197.3314.2197.5303v41.83c0 .1989-.079.3898-.2197.5304-.1406.1407-.3314.2196-.5303.2196z"/><path d="m77.9996 37.6001-5.54-5.35c-.1405-.1406-.2194-.3312-.2194-.53 0-.1987.0789-.3894.2194-.53.1419-.1381.332-.2153.53-.2153.1979 0 .3881.0772.53.2153l4.48 4.29 4.29-4.48c.1404-.1024.3121-.1528.4856-.1426.1736.0101.3382.0803.4657.1984s.2101.2768.2336.449c.0235.1723-.0136.3473-.1049.4952z"/><path d="m73.0001 67.9399c-.0963.001-.1917-.017-.281-.0531-.0892-.036-.1705-.0893-.239-.1569-.1405-.1406-.2194-.3312-.2194-.53 0-.1987.0789-.3894.2194-.53l5.35-5.54 5.54 5.35c.1404.1406.2193.3313.2193.53 0 .1988-.0789.3894-.2193.53-.1406.1405-.3313.2193-.53.2193-.1988 0-.3894-.0788-.53-.2193l-4.46-4.31-4.31 4.46c-.0674.0773-.1503.1394-.2434.1825-.093.0431-.1941.0661-.2966.0675z"/><path d="m96.0802 60.5799c-.13-.0003-.2576-.0348-.37-.1l-36.23-20.92c-.0956-.0432-.1811-.1061-.251-.1844-.0698-.0783-.1224-.1704-.1544-.2704-.032-.0999-.0427-.2055-.0313-.3098.0113-.1043.0444-.2051.0972-.2958.0527-.0908.1239-.1694.209-.2309.085-.0615.182-.1044.2847-.1261.1027-.0216.2088-.0214.3114.0005s.1995.0651.2844.1269l36.23 20.91c.1436.0826.2558.2105.319.3636.0633.1532.0741.323.0307.4829s-.1386.3009-.2706.401c-.132.1002-.2934.1538-.4591.1525z"/><path d="m60.0796 45.6001c-.1627-.0038-.3201-.0591-.4494-.1579-.1294-.0988-.2241-.2361-.2706-.3921-.0522-.1909-.0269-.3948.0705-.5671.0974-.1724.259-.2992.4495-.3529l6-1.71-1.71-6c-.0275-.0946-.0362-.1936-.0255-.2915s.0406-.1928.0879-.2791c.0474-.0864.1113-.1626.1881-.2242.0768-.0617.165-.1076.2595-.1352.1923-.0526.3975-.0275.5714.0697.174.0973.3028.259.3586.4503l2.13 7.4-7.41 2.13c-.0793.034-.1638.0543-.25.06z"/><path d="m90.81 63.3401c-.1636-.0006-.3225-.0547-.4524-.154-.13-.0993-.224-.2383-.2676-.396l-2.09-7.4 7.41-2.13c.1922-.0526.3974-.0275.5714.0697.1739.0973.3027.259.3586.4503.0523.1909.027.3948-.0704.5672-.0975.1723-.2591.2991-.4496.3528l-6 1.72 1.71 6c.053.1909.0293.395-.0659.5687-.0953.1737-.2546.3034-.4441.3613z"/><path d="m59.75 60.58c-.1657.0013-.3271-.0523-.4591-.1524-.132-.1002-.2272-.2412-.2706-.4011s-.0326-.3297.0307-.4828c.0632-.1532.1754-.2811.319-.3637l36.23-20.91c.1694-.0922.3679-.1156.5541-.0654.1862.0503.3459.1704.4459.3354.094.1701.1173.3703.0649.5574s-.1763.346-.3449.4426l-36.2 20.94c-.1118.0666-.2398.1012-.37.1z"/><path d="m65.0001 63.3501h-.18c-.1925-.0496-.3578-.1727-.4606-.3428s-.1349-.3737-.0894-.5672l1.5-6-6-1.5c-.1936-.0477-.3603-.1704-.4635-.3411-.1031-.1707-.1342-.3753-.0865-.5689s.1704-.3603.3411-.4635c.1707-.1031.3753-.1342.5689-.0865l7.48 1.86-1.86 7.48c-.0501.1581-.1505.2954-.2859.3911s-.2984.1445-.4641.1389z"/><path d="m95.7303 45.6099h-.19l-7.47-1.86 1.86-7.48c.0237-.0959.0659-.1862.1245-.2657.0585-.0795.1321-.1467.2166-.1978s.1782-.085.2758-.0998c.0977-.0149.1972-.0104.2931.0133.0959.0236.1862.0659.2657.1244.0795.0586.1467.1322.1978.2167s.085.1782.0998.2758c.0149.0976.0104.1972-.0133.2931l-1.5 6 6 1.5c.1797.0423.3375.1494.4432.3008s.1518.3365.1295.5198-.1114.3519-.2503.4736c-.1389.1216-.3178.1878-.5024.1858z"/></g></svg>

<svg width="97" height="72" viewBox="0 0 97 72" fill="none" xmlns="http://www.w3.org/2000/svg">
<path d="M84.67 14.3601H0.75C0.551088 14.3601 0.360322 14.2811 0.21967 14.1404C0.0790176 13.9998 0 13.809 0 13.6101C0 13.4112 0.0790176 13.2204 0.21967 13.0798C0.360322 12.9391 0.551088 12.8601 0.75 12.8601H84.67C84.8689 12.8601 85.0597 12.9391 85.2003 13.0798C85.341 13.2204 85.42 13.4112 85.42 13.6101C85.42 13.809 85.341 13.9998 85.2003 14.1404C85.0597 14.2811 84.8689 14.3601 84.67 14.3601Z" fill="#BAD8DB"/>
<path d="M8.21008 8.79003C9.1103 8.79003 9.84008 8.06025 9.84008 7.16003C9.84008 6.2598 9.1103 5.53003 8.21008 5.53003C7.30985 5.53003 6.58008 6.2598 6.58008 7.16003C6.58008 8.06025 7.30985 8.79003 8.21008 8.79003Z" fill="#ED6A5E"/>
<path d="M54 60.9001H1.50004V1.50004H83.92V22.7501C84.42 22.8801 84.92 23.0101 85.42 23.1601V1.33004C85.42 0.9773 85.2799 0.63901 85.0305 0.389586C84.7811 0.140163 84.4428 3.81722e-05 84.09 3.81722e-05H1.33004C1.15501 -0.0012929 0.981463 0.0321997 0.819499 0.0985671C0.657534 0.164934 0.510387 0.262851 0.386619 0.386619C0.262851 0.510387 0.164934 0.657534 0.0985671 0.819499C0.0321997 0.981463 -0.00129291 1.15501 3.81726e-05 1.33004V61.0801C3.3174e-05 61.2543 0.0345045 61.4267 0.101465 61.5875C0.168426 61.7483 0.266552 61.8943 0.390186 62.017C0.513821 62.1397 0.660519 62.2367 0.821825 62.3025C0.98313 62.3682 1.15585 62.4014 1.33004 62.4001H54.86C54.56 61.9101 54.29 61.4101 54 60.9001Z" fill="#BAD8DB"/>
<path d="M78 71.13C77.8011 71.13 77.6103 71.0511 77.4697 70.9104C77.329 70.7698 77.25 70.5789 77.25 70.38V28.55C77.25 28.3511 77.329 28.1603 77.4697 28.0197C77.6103 27.879 77.8011 27.8 78 27.8C78.1989 27.8 78.3897 27.879 78.5303 28.0197C78.671 28.1603 78.75 28.3511 78.75 28.55V70.38C78.75 70.5789 78.671 70.7698 78.5303 70.9104C78.3897 71.0511 78.1989 71.13 78 71.13Z" fill="#ED6A5E"/>
<path d="M77.9996 37.6001L72.4596 32.2501C72.3191 32.1095 72.2402 31.9189 72.2402 31.7201C72.2402 31.5214 72.3191 31.3307 72.4596 31.1901C72.6015 31.052 72.7916 30.9748 72.9896 30.9748C73.1875 30.9748 73.3777 31.052 73.5196 31.1901L77.9996 35.4801L82.2896 31.0001C82.43 30.8977 82.6017 30.8473 82.7752 30.8575C82.9488 30.8676 83.1134 30.9378 83.2409 31.0559C83.3684 31.174 83.451 31.3327 83.4745 31.5049C83.498 31.6772 83.4609 31.8522 83.3696 32.0001L77.9996 37.6001Z" fill="#ED6A5E"/>
<path d="M73.0001 67.9399C72.9038 67.9409 72.8084 67.9229 72.7191 67.8868C72.6299 67.8508 72.5486 67.7975 72.4801 67.7299C72.3396 67.5893 72.2607 67.3987 72.2607 67.1999C72.2607 67.0012 72.3396 66.8105 72.4801 66.6699L77.8301 61.1299L83.3701 66.4799C83.5105 66.6205 83.5894 66.8112 83.5894 67.0099C83.5894 67.2087 83.5105 67.3993 83.3701 67.5399C83.2295 67.6804 83.0388 67.7592 82.8401 67.7592C82.6413 67.7592 82.4507 67.6804 82.3101 67.5399L77.8501 63.2299L73.5401 67.6899C73.4727 67.7672 73.3898 67.8293 73.2967 67.8724C73.2037 67.9155 73.1026 67.9385 73.0001 67.9399Z" fill="#ED6A5E"/>
<path d="M96.0802 60.5799C95.9502 60.5796 95.8226 60.5451 95.7102 60.4799L59.4802 39.5599C59.3846 39.5167 59.2991 39.4538 59.2292 39.3755C59.1594 39.2972 59.1068 39.2051 59.0748 39.1051C59.0428 39.0052 59.0321 38.8996 59.0435 38.7953C59.0548 38.691 59.0879 38.5902 59.1407 38.4995C59.1934 38.4087 59.2646 38.3301 59.3497 38.2686C59.4347 38.2071 59.5317 38.1642 59.6344 38.1425C59.7371 38.1209 59.8432 38.1211 59.9458 38.143C60.0484 38.1649 60.1453 38.2081 60.2302 38.2699L96.4602 59.1799C96.6038 59.2625 96.716 59.3904 96.7792 59.5435C96.8425 59.6967 96.8533 59.8665 96.8099 60.0264C96.7665 60.1863 96.6713 60.3273 96.5393 60.4274C96.4073 60.5276 96.2459 60.5812 96.0802 60.5799Z" fill="#ED6A5E"/>
<path d="M60.0796 45.6001C59.9169 45.5963 59.7595 45.541 59.6302 45.4422C59.5008 45.3434 59.4061 45.2061 59.3596 45.0501C59.3074 44.8592 59.3327 44.6553 59.4301 44.483C59.5275 44.3106 59.6891 44.1838 59.8796 44.1301L65.8796 42.4201L64.1696 36.4201C64.1421 36.3255 64.1334 36.2265 64.1441 36.1286C64.1548 36.0307 64.1847 35.9358 64.232 35.8495C64.2794 35.7631 64.3433 35.6869 64.4201 35.6253C64.4969 35.5636 64.5851 35.5177 64.6796 35.4901C64.8719 35.4375 65.0771 35.4626 65.251 35.5598C65.425 35.6571 65.5538 35.8188 65.6096 36.0101L67.7396 43.4101L60.3296 45.5401C60.2503 45.5741 60.1658 45.5944 60.0796 45.6001Z" fill="#ED6A5E"/>
<path d="M90.81 63.3401C90.6464 63.3395 90.4875 63.2854 90.3576 63.1861C90.2276 63.0868 90.1336 62.9478 90.09 62.7901L88 55.3901L95.41 53.2601C95.6022 53.2075 95.8074 53.2326 95.9814 53.3298C96.1553 53.4271 96.2841 53.5888 96.34 53.7801C96.3923 53.971 96.367 54.1749 96.2696 54.3473C96.1721 54.5196 96.0105 54.6464 95.82 54.7001L89.82 56.4201L91.53 62.4201C91.583 62.611 91.5593 62.8151 91.4641 62.9888C91.3688 63.1625 91.2095 63.2922 91.02 63.3501L90.81 63.3401Z" fill="#ED6A5E"/>
<path d="M59.75 60.58C59.5843 60.5813 59.4229 60.5277 59.2909 60.4276C59.1589 60.3274 59.0637 60.1864 59.0203 60.0265C58.9769 59.8666 58.9877 59.6968 59.051 59.5437C59.1142 59.3905 59.2264 59.2626 59.37 59.18L95.6 38.27C95.7694 38.1778 95.9679 38.1544 96.1541 38.2046C96.3403 38.2549 96.5 38.375 96.6 38.54C96.694 38.7101 96.7173 38.9103 96.6649 39.0974C96.6125 39.2845 96.4886 39.4434 96.32 39.54L60.12 60.48C60.0082 60.5466 59.8802 60.5812 59.75 60.58Z" fill="#ED6A5E"/>
<path d="M65.0001 63.3501H64.8201C64.6276 63.3005 64.4623 63.1774 64.3595 63.0073C64.2567 62.8372 64.2246 62.6336 64.2701 62.4401L65.7701 56.4401L59.7701 54.9401C59.5765 54.8924 59.4098 54.7697 59.3066 54.599C59.2035 54.4283 59.1724 54.2237 59.2201 54.0301C59.2678 53.8365 59.3905 53.6698 59.5612 53.5666C59.7319 53.4635 59.9365 53.4324 60.1301 53.4801L67.6101 55.3401L65.7501 62.8201C65.7 62.9782 65.5996 63.1155 65.4642 63.2112C65.3288 63.3069 65.1658 63.3557 65.0001 63.3501Z" fill="#ED6A5E"/>
<path d="M95.7303 45.6099H95.5403L88.0703 43.7499L89.9303 36.2699C89.954 36.174 89.9962 36.0837 90.0548 36.0042C90.1133 35.9247 90.1869 35.8575 90.2714 35.8064C90.3559 35.7553 90.4496 35.7214 90.5472 35.7066C90.6449 35.6917 90.7444 35.6962 90.8403 35.7199C90.9362 35.7435 91.0265 35.7858 91.106 35.8443C91.1855 35.9029 91.2527 35.9765 91.3038 36.061C91.3549 36.1455 91.3888 36.2392 91.4036 36.3368C91.4185 36.4344 91.414 36.534 91.3903 36.6299L89.8903 42.6299L95.8903 44.1299C96.07 44.1722 96.2278 44.2793 96.3335 44.4307C96.4392 44.5821 96.4853 44.7672 96.463 44.9505C96.4407 45.1338 96.3516 45.3024 96.2127 45.4241C96.0738 45.5457 95.8949 45.6119 95.7103 45.6099H95.7303Z" fill="#ED6A5E"/>
</svg>
